SVG/star-half-empty.svg

<?xml version="1.0" encoding="utf-8"?>
<!-- Generated by IcoMoon.io -->
<!DOCTYPE svg PUBLIC "-//W3C//DTD SVG 1.1//EN" "http://www.w3.org/Graphics/SVG/1.1/DTD/svg11.dtd">
<svg version="1.1" xmlns="http://www.w3.org/2000/svg" xmlns:xlink="http://www.w3.org/1999/xlink" width="13" height="14" viewBox="0 0 13 14">
<path fill="#444444" d="M9.266 7.477l2.008-1.953-3.297-0.484-0.234-0.469-1.242-2.516v7.523l0.461 0.242 2.484 1.313-0.469-2.773-0.094-0.516zM12.797 5.43l-2.836 2.766 0.672 3.906q0.039 0.258-0.047 0.402t-0.266 0.145q-0.133 0-0.312-0.094l-3.508-1.844-3.508 1.844q-0.18 0.094-0.312 0.094-0.18 0-0.266-0.145t-0.047-0.402l0.672-3.906-2.844-2.766q-0.25-0.25-0.18-0.465t0.422-0.27l3.922-0.57 1.758-3.555q0.156-0.32 0.383-0.32 0.219 0 0.383 0.32l1.758 3.555 3.922 0.57q0.352 0.055 0.422 0.27t-0.187 0.465z"></path>
</svg>

<svg xmlns="http://www.w3.org/2000/svg" viewBox="0 0 13 14"><path d="M9.266 7.477l2.008-1.953-3.297-.484-.234-.47L6.5 2.056V9.58l.462.24 2.484 1.314-.47-2.773-.093-.514zm3.53-2.047L9.962 8.196l.673 3.906q.04.258-.047.402t-.266.145q-.133 0-.312-.097L6.5 10.71l-3.508 1.845q-.18.094-.312.094-.18 0-.266-.148t-.047-.402l.672-3.905L.192 5.43q-.25-.25-.18-.465t.422-.27l3.922-.57L6.117.57Q6.272.25 6.5.25q.22 0 .383.32L8.64 4.125l3.923.57q.352.055.422.27t-.187.465z" /></svg>
